public/assets/svgs/addons/ember-journal.svg

<svg height="58" viewBox="0 0 58 58" width="58" xmlns="http://www.w3.org/2000/svg"><g fill="none"><path d="m50 5h6c1.1032291.00322927 1.9967707.89677088 2 2v42c-.0032293 1.1032291-.8967709 1.9967707-2 2h-54c-1.10322912-.0032293-1.99677073-.8967709-2-2v-42c.00322927-1.10322912.89677088-1.99677073 2-2z" fill="#af8066"/><path d="m8 9h-3c-.55161456.00161464-.99838536.44838544-1 1v36c.00161464.5516146.44838544.9983854 1 1h48c.5516146-.0016146.9983854-.4483854 1-1v-36c-.0016146-.55161456-.4483854-.99838536-1-1z" fill="#7f5b53"/><path d="m32 45.71 16.79-7.19c.7326127-.3190145 1.2073622-1.0409477 1.21-1.84v-35.16c.0028835-.33648026-.1646857-.65156838-.4452841-.83728816s-.6361137-.21684588-.9447159-.08271184l-10.27 4.4-6.34 2.71" fill="#e4c05c"/><g fill="#2c2f38"><path d="m32.00049 16.00049c-.474793-.0000187-.8841543-.3338091-.9797473-.7988794-.0955931-.4650702.1489244-.9332624.5852173-1.1205506l14-6c.507103-.21568369 1.0931185.01959012 1.3102922.52605683s-.0163762 1.09317137-.5222022 1.31183317l-14 6c-.1242807.0536478-.2581947.0813929-.39356.08154z"/><path d="m32.00049 22.00049c-.474793-.0000187-.8841543-.3338091-.9797473-.7988794-.0955931-.4650702.1489244-.9332624.5852173-1.1205506l14-6c.3285363-.1420218.7079279-.0976014.9947716.1164711.2868436.2140725.4373824.5651412.3947154.9205084-.0426671.3553671-.2720313.660823-.601397.8009105l-14 6c-.1242807.0536478-.2581947.0813929-.39356.08154z"/><path d="m32.00049 28.00049c-.474793-.0000187-.8841543-.3338091-.9797473-.7988794-.0955931-.4650702.1489244-.9332624.5852173-1.1205506l14-6c.3285363-.1420218.7079279-.0976014.9947716.1164711.2868436.2140725.4373824.5651412.3947154.9205084-.0426671.3553671-.2720313.660823-.601397.8009105l-14 6c-.1242807.0536478-.2581947.0813929-.39356.08154z"/><path d="m32.00049 34.00049c-.474793-.0000187-.8841543-.3338091-.9797473-.7988794-.0955931-.4650702.1489244-.9332624.5852173-1.1205506l14-6c.3285363-.1420218.7079279-.0976014.9947716.1164711.2868436.2140725.4373824.5651412.3947154.9205084-.0426671.3553671-.2720313.660823-.601397.8009105l-14 6c-.1242807.0536478-.2581947.0813929-.39356.08154z"/><path d="m32.00049 40.00049c-.474793-.0000187-.8841543-.3338091-.9797473-.7988794-.0955931-.4650702.1489244-.9332624.5852173-1.1205506l14-6c.507103-.2156837 1.0931185.0195901 1.3102922.5260568s-.0163762 1.0931714-.5222022 1.3118332l-14 6c-.1242807.0536478-.2581947.0813929-.39356.08154z"/></g><path d="m26 7.71-6.34-2.71-10.27-4.4c-.30860223-.13413404-.66411754-.10300794-.94471591.08271184-.28059836.18571978-.44816759.5008079-.44528409.83728816v35.16c.0026378.7990523.47738734 1.5209855 1.21 1.84l16.79 7.19" fill="#f3d55b"/><g fill="#2c2f38"><path d="m25.99951 16.00049c-.1353619-.0001485-.2692724-.0278935-.39355-.08154l-14-6c-.5050024-.21915264-.7378565-.80529229-.5209164-1.31124909.2169401-.50595681.8020549-.7413743 1.3089564-.52665091l14 6c.4362929.1872882.6808104.6554804.5852173 1.1205506-.095593.4650703-.5049543.7988607-.9797473.7988794z"/><path d="m25.99951 22.00049c-.1353619-.0001485-.2692724-.0278935-.39355-.08154l-14-6c-.3293657-.1400875-.5587299-.4455434-.601397-.8009105-.042667-.3553672.1078718-.7064359.3947154-.9205084.2868437-.2140725.6662353-.2584929.9947716-.1164711l14 6c.4362929.1872882.6808104.6554804.5852173 1.1205506-.095593.4650703-.5049543.7988607-.9797473.7988794z"/><path d="m25.99951 28.00049c-.1353619-.0001485-.2692724-.0278935-.39355-.08154l-14-6c-.505826-.2186618-.7393759-.8053665-.5222022-1.3118332s.8031892-.7417405 1.3102922-.5260568l14 6c.4362929.1872882.6808104.6554804.5852173 1.1205506-.095593.4650703-.5049543.7988607-.9797473.7988794z"/><path d="m25.99951 34.00049c-.1353619-.0001485-.2692724-.0278935-.39355-.08154l-14-6c-.505826-.2186618-.7393759-.8053665-.5222022-1.3118332s.8031892-.7417405 1.3102922-.5260568l14 6c.4362929.1872882.6808104.6554804.5852173 1.1205506-.095593.4650703-.5049543.7988607-.9797473.7988794z"/><path d="m25.99951 40.00049c-.1353619-.0001485-.2692724-.0278935-.39355-.08154l-14-6c-.505826-.2186618-.7393759-.8053665-.5222022-1.3118332s.8031892-.7417405 1.3102922-.5260568l14 6c.4362929.1872882.6808104.6554804.5852173 1.1205506-.095593.4650703-.5049543.7988607-.9797473.7988794z"/></g><path d="m32 7.71v50.29l-3-3-3 3v-50.29l3 1.29z" fill="#e64c3c"/></g></svg>

<?xml version="1.0" encoding="UTF-8"?>
<svg width="58px" height="58px" viewBox="0 0 58 58" version="1.1" xmlns="http://www.w3.org/2000/svg" xmlns:xlink="http://www.w3.org/1999/xlink">
    <!-- Generator: Sketch 47.1 (45422) - http://www.bohemiancoding.com/sketch -->
    <title>024 - Story Book Open</title>
    <desc>Created with Sketch.</desc>
    <defs></defs>
    <g id="Page-1" stroke="none" stroke-width="1" fill="none" fill-rule="evenodd">
        <g id="024---Story-Book-Open" fill-rule="nonzero">
            <path d="M50,5 L56,5 C57.1032291,5.00322927 57.9967707,5.89677088 58,7 L58,49 C57.9967707,50.1032291 57.1032291,50.9967707 56,51 L2,51 C0.896770878,50.9967707 0.00322927335,50.1032291 0,49 L0,7 C0.00322927335,5.89677088 0.896770878,5.00322927 2,5 L50,5 Z" id="Shape" fill="#AF8066"></path>
            <path d="M8,9 L5,9 C4.44838544,9.00161464 4.00161464,9.44838544 4,10 L4,46 C4.00161464,46.5516146 4.44838544,46.9983854 5,47 L53,47 C53.5516146,46.9983854 53.9983854,46.5516146 54,46 L54,10 C53.9983854,9.44838544 53.5516146,9.00161464 53,9 L8,9 Z" id="Shape" fill="#7F5B53"></path>
            <path d="M32,45.71 L48.79,38.52 C49.5226127,38.2009855 49.9973622,37.4790523 50,36.68 L50,1.52 C50.0028835,1.18351974 49.8353143,0.868431617 49.5547159,0.682711838 C49.2741175,0.496992058 48.9186022,0.465865955 48.61,0.6 L38.34,5 L32,7.71" id="Shape" fill="#E4C05C"></path>
            <path d="M32.00049,16.00049 C31.525697,16.0004713 31.1163357,15.6666809 31.0207427,15.2016106 C30.9251496,14.7365404 31.1696671,14.2683482 31.60596,14.08106 L45.60596,8.08106 C46.113063,7.86537631 46.6990785,8.10065012 46.9162522,8.60711683 C47.1334259,9.11358354 46.899876,9.7002882 46.39405,9.91895 L32.39405,15.91895 C32.2697693,15.9725978 32.1358553,16.0003429 32.00049,16.00049 Z" id="Shape" fill="#2C2F38"></path>
            <path d="M32.00049,22.00049 C31.525697,22.0004713 31.1163357,21.6666809 31.0207427,21.2016106 C30.9251496,20.7365404 31.1696671,20.2683482 31.60596,20.08106 L45.60596,14.08106 C45.9344963,13.9390382 46.3138879,13.9834586 46.6007316,14.1975311 C46.8875752,14.4116036 47.038114,14.7626723 46.995447,15.1180395 C46.9527799,15.4734066 46.7234157,15.7788625 46.39405,15.91895 L32.39405,21.91895 C32.2697693,21.9725978 32.1358553,22.0003429 32.00049,22.00049 Z" id="Shape" fill="#2C2F38"></path>
            <path d="M32.00049,28.00049 C31.525697,28.0004713 31.1163357,27.6666809 31.0207427,27.2016106 C30.9251496,26.7365404 31.1696671,26.2683482 31.60596,26.08106 L45.60596,20.08106 C45.9344963,19.9390382 46.3138879,19.9834586 46.6007316,20.1975311 C46.8875752,20.4116036 47.038114,20.7626723 46.995447,21.1180395 C46.9527799,21.4734066 46.7234157,21.7788625 46.39405,21.91895 L32.39405,27.91895 C32.2697693,27.9725978 32.1358553,28.0003429 32.00049,28.00049 L32.00049,28.00049 Z" id="Shape" fill="#2C2F38"></path>
            <path d="M32.00049,34.00049 C31.525697,34.0004713 31.1163357,33.6666809 31.0207427,33.2016106 C30.9251496,32.7365404 31.1696671,32.2683482 31.60596,32.08106 L45.60596,26.08106 C45.9344963,25.9390382 46.3138879,25.9834586 46.6007316,26.1975311 C46.8875752,26.4116036 47.038114,26.7626723 46.995447,27.1180395 C46.9527799,27.4734066 46.7234157,27.7788625 46.39405,27.91895 L32.39405,33.91895 C32.2697693,33.9725978 32.1358553,34.0003429 32.00049,34.00049 Z" id="Shape" fill="#2C2F38"></path>
            <path d="M32.00049,40.00049 C31.525697,40.0004713 31.1163357,39.6666809 31.0207427,39.2016106 C30.9251496,38.7365404 31.1696671,38.2683482 31.60596,38.08106 L45.60596,32.08106 C46.113063,31.8653763 46.6990785,32.1006501 46.9162522,32.6071168 C47.1334259,33.1135835 46.899876,33.7002882 46.39405,33.91895 L32.39405,39.91895 C32.2697693,39.9725978 32.1358553,40.0003429 32.00049,40.00049 Z" id="Shape" fill="#2C2F38"></path>
            <path d="M26,7.71 L19.66,5 L9.39,0.6 C9.08139777,0.465865955 8.72588246,0.496992058 8.44528409,0.682711838 C8.16468573,0.868431617 7.9971165,1.18351974 8,1.52 L8,36.68 C8.0026378,37.4790523 8.47738734,38.2009855 9.21,38.52 L26,45.71" id="Shape" fill="#F3D55B"></path>
            <path d="M25.99951,16.00049 C25.8641481,16.0003415 25.7302376,15.9725965 25.60596,15.91895 L11.60596,9.91895 C11.1009576,9.69979736 10.8681035,9.11365771 11.0850436,8.60770091 C11.3019837,8.1017441 11.8870985,7.86632661 12.394,8.08105 L26.394,14.08105 C26.8302929,14.2683382 27.0748104,14.7365304 26.9792173,15.2016006 C26.8836243,15.6666709 26.474263,16.0004613 25.99947,16.00048 L25.99951,16.00049 Z" id="Shape" fill="#2C2F38"></path>
            <path d="M25.99951,22.00049 C25.8641481,22.0003415 25.7302376,21.9725965 25.60596,21.91895 L11.60596,15.91895 C11.2765943,15.7788625 11.0472301,15.4734066 11.004563,15.1180395 C10.961896,14.7626723 11.1124348,14.4116036 11.3992784,14.1975311 C11.6861221,13.9834586 12.0655137,13.9390382 12.39405,14.08106 L26.39405,20.08106 C26.8303429,20.2683482 27.0748604,20.7365404 26.9792673,21.2016106 C26.8836743,21.6666809 26.474313,22.0004713 25.99952,22.00049 L25.99951,22.00049 Z" id="Shape" fill="#2C2F38"></path>
            <path d="M25.99951,28.00049 C25.8641481,28.0003415 25.7302376,27.9725965 25.60596,27.91895 L11.60596,21.91895 C11.100134,21.7002882 10.8665841,21.1135835 11.0837578,20.6071168 C11.3009315,20.1006501 11.886947,19.8653763 12.39405,20.08106 L26.39405,26.08106 C26.8303429,26.2683482 27.0748604,26.7365404 26.9792673,27.2016106 C26.8836743,27.6666809 26.474313,28.0004713 25.99952,28.00049 L25.99951,28.00049 Z" id="Shape" fill="#2C2F38"></path>
            <path d="M25.99951,34.00049 C25.8641481,34.0003415 25.7302376,33.9725965 25.60596,33.91895 L11.60596,27.91895 C11.100134,27.7002882 10.8665841,27.1135835 11.0837578,26.6071168 C11.3009315,26.1006501 11.886947,25.8653763 12.39405,26.08106 L26.39405,32.08106 C26.8303429,32.2683482 27.0748604,32.7365404 26.9792673,33.2016106 C26.8836743,33.6666809 26.474313,34.0004713 25.99952,34.00049 L25.99951,34.00049 Z" id="Shape" fill="#2C2F38"></path>
            <path d="M25.99951,40.00049 C25.8641481,40.0003415 25.7302376,39.9725965 25.60596,39.91895 L11.60596,33.91895 C11.100134,33.7002882 10.8665841,33.1135835 11.0837578,32.6071168 C11.3009315,32.1006501 11.886947,31.8653763 12.39405,32.08106 L26.39405,38.08106 C26.8303429,38.2683482 27.0748604,38.7365404 26.9792673,39.2016106 C26.8836743,39.6666809 26.474313,40.0004713 25.99952,40.00049 L25.99951,40.00049 Z" id="Shape" fill="#2C2F38"></path>
            <polygon id="Shape" fill="#E64C3C" points="32 7.71 32 58 29 55 26 58 26 7.71 29 9"></polygon>
        </g>
    </g>
</svg>
